!!! OTL: Berkowitz214
!!! Chapter: 1
!!! Section: II
!!! Page: 50
!!! Mode: 
!!! Encoder: DJB
**kern
*staff1
*I"Piano
=1-
*clefC4
*k[f#c#]
*D:
*M2/4
4r
8A\L
8c#\J
=2
4d\
8F#/L
8A/J
=3
4B\
8E/L
8G/J
=4
8A/L
16G/L
16F#/JJ
8E/L
8D/J
=5
8F#/L
8E/J
8A\L
8c#\J
=6
4d\
8F#/L
8A/J
=7
4B\
8E/L
8G/J
=8
8A/L
16G/L
16F#/JJ
8E/L
8G/J
=9
8F#/L
8E/J
4D/
==
*-
